X: 267
T: The Humours Of Derrycrossane
R: slip jig
M: 9/8
L: 1/8
K: Gmaj
|:B3 BdB c2d|BAG B/c/dB ABc|BAG BdB c2e|dBG GDG G2d|
Bc/B/B BdB c2d|BAG BdB ABc|BAG BdB ceg|1 dBG GAF G3:|2 dBG GAF G2
|:d|g3 edc Bcd|ecA AcA A2d|g3 edc Bcd|gdB GAG G2d|
g3 edc Bcd|ecA AcA A3|def gfe def|1 gbg agf g2:|2 gbg agf g3|]
F: https://thesession.org/tunes/1550#setting25785

